X:74
T:The Star of Munster                                                                               
M:C                                                                                                 
L:1/8                                                                                               
K:ADor                                                                                              
B|c2 Ac BAGB|AcBA GEDG|EAAB cBcd|eaae gedB|                                                         
c2 Ac BAGB|AcBA GEDG|EAAB cBcd|eddB A2 :|                                                           
g eaag ageg|a2 ba agef|g2 fa gd (3ddd|gaba gedg|                                                    
eaag ae (3eee|agbg agef|g3 e a2 ga|bgaf gedB :|A4 |>|
